public/favicon.svg

<svg width="40" height="46" viewBox="0 0 40 46" fill="none" xmlns="http://www.w3.org/2000/svg">
<rect width="40" height="46" rx="8" fill="#0A7CFF"/>
<g clip-path="url(#clip0_38_2)">
<path d="M16.7995 19.2966V10.8956C16.7995 10.191 16.616 9.66792 16.249 9.3265C15.8893 8.98509 15.335 8.81439 14.5863 8.81439H9.21298V6.25377H14.8175C16.5132 6.25377 17.8199 6.67147 18.7374 7.50684C19.655 8.33496 20.1138 9.51539 20.1138 11.0481V19.2966H16.7995ZM9.17993 19.2966V14.8291C9.17993 13.9429 9.27537 13.2964 9.46622 12.8896C9.65709 12.4755 9.81857 12.1886 9.9507 12.0288H12.5933C12.5273 12.3121 12.4759 12.6535 12.4392 13.053C12.4025 13.4525 12.3841 13.9284 12.3841 14.4804V19.2966H9.17993Z" fill="white"/>
<path d="M27.3619 22.0899V19.5302C28.3182 19.4929 29.06 19.2023 29.5871 18.6583C30.1217 18.1068 30.3892 17.3058 30.3892 16.255V11.3367H22.4822V8.70993H33.8004V16.1991C33.8004 17.4287 33.5406 18.4757 33.0209 19.3401C32.5015 20.1971 31.7596 20.8603 30.7957 21.3298C29.8393 21.7918 28.6948 22.0452 27.3619 22.0899Z" fill="white"/>
<path d="M22.6178 13.7075V25.7038H25.8935V13.361C25.8935 12.7946 25.9124 12.3065 25.95 11.8967C25.9952 11.4868 26.0517 11.1366 26.1194 10.8459H23.3972C23.2692 11.0099 23.1073 11.3042 22.9115 11.729C22.7157 12.1538 22.6178 12.8133 22.6178 13.7075Z" fill="white"/>
<path d="M28.4183 23.904H34.902V27.2685H31.0727V33.5952H28.4183V23.904ZM28.904 34.7689L17.552 30.2866V26.7208L31.0727 32.2203V34.7689H28.904Z" fill="white"/>
<path d="M12.9822 21.1989C14.7519 21.1989 16.0885 21.6237 16.9922 22.4732C17.9033 23.3228 18.3589 24.5896 18.3589 26.2737V34.5788H14.9702L14.9477 25.9943C14.9477 25.264 14.7857 24.72 14.462 24.3623C14.1457 24.0046 13.6562 23.8258 12.9935 23.8258H11.2314C11.0959 24.2356 10.9942 24.6939 10.9264 25.2006C10.8587 25.7074 10.8248 26.188 10.8248 26.6426V30.5438C10.8248 31.8925 10.4671 32.9357 9.75168 33.6734C9.04382 34.4038 8.04982 34.7688 6.76964 34.7688C6.4609 34.7688 6.17851 34.7542 5.92248 34.7243C5.66645 34.702 5.39159 34.6683 5.0979 34.6237V32.0192C5.21839 32.0265 5.34264 32.0341 5.47066 32.0415C5.59867 32.0415 5.72292 32.0415 5.84341 32.0415C6.39313 32.0415 6.8073 31.8998 7.08593 31.6169C7.36456 31.3336 7.50387 30.8903 7.50387 30.2866V26.9444C7.50387 26.4749 7.56787 25.9421 7.6959 25.346C7.8239 24.7498 8.02721 24.2431 8.30584 23.8258H6.14839V21.1989H12.9822Z" fill="white"/>
<path d="M10.8462 38.7209V36.9283H11.7108V38.0508H13.6504V38.7209H10.8462ZM13.9561 38.5972L12.605 41.9253H11.6878L13.3019 38.0508H13.9561V38.5972Z" fill="white"/>
<path d="M16.4052 42C16.0743 42 15.785 41.9329 15.5373 41.7984C15.2896 41.6618 15.0968 41.4721 14.9587 41.2291C14.8228 40.9841 14.7549 40.6999 14.7549 40.3766V38.0508H15.6162V40.4646C15.6162 40.725 15.6885 40.9363 15.8332 41.0989C15.9778 41.2595 16.1674 41.3398 16.4019 41.3398C16.6364 41.3398 16.8249 41.2595 16.9673 41.0989C17.112 40.9363 17.1843 40.725 17.1843 40.4646V39.2772C17.1843 39.0928 17.1437 38.9529 17.0627 38.8574C16.9816 38.7599 16.861 38.7112 16.701 38.7112C16.6419 38.7112 16.5783 38.7188 16.5104 38.734C16.4424 38.747 16.3723 38.7654 16.3 38.7893L16.2014 38.2362C16.3153 38.1668 16.4435 38.1126 16.586 38.0736C16.7284 38.0323 16.8632 38.0118 16.9904 38.0118C17.3191 38.0118 17.5777 38.1179 17.7662 38.3305C17.9547 38.543 18.0489 38.8359 18.0489 39.2088V40.3766C18.0489 40.6999 17.9799 40.9841 17.8418 41.2291C17.7059 41.4721 17.5141 41.6618 17.2665 41.7984C17.021 41.9329 16.7339 42 16.4052 42Z" fill="white"/>
<path d="M19.2686 40.2434V38.7208H18.6144V38.0508H20.1332V40.2434H19.2686Z" fill="white"/>
<path d="M20.9057 41.961C20.8728 41.961 20.8378 41.96 20.8005 41.9577C20.7632 41.9557 20.7271 41.9524 20.692 41.9481V41.1706C20.738 41.1769 20.783 41.1825 20.8268 41.1868C20.8728 41.1911 20.9156 41.1934 20.955 41.1934C21.1435 41.1891 21.3068 41.1544 21.4448 41.0893C21.5851 41.0242 21.7013 40.933 21.7933 40.8159C21.8854 40.6989 21.9544 40.5633 22.0004 40.4093V38.7208H21.1358V38.0508H22.8519V40.0286C22.8519 40.2368 22.8738 40.4397 22.9176 40.6371L23.1839 41.9253H22.3818L22.1516 40.9038H22.1286C22.0979 41.0969 22.0256 41.2734 21.9117 41.4341C21.7977 41.5944 21.6541 41.7226 21.481 41.8179C21.3079 41.9134 21.1161 41.961 20.9057 41.961Z" fill="white"/>
<path d="M24.3048 40.2434V38.7208H23.6506V38.0508H25.1694V40.2434H24.3048Z" fill="white"/>
<path d="M25.8762 38.0508H29.1538V38.7208H28.4799V41.9253H27.612V38.7208H25.8762V38.0508Z" fill="white"/>
<path d="M23.1925 6.01332C22.7703 5.87727 22.323 5.60661 21.9268 5.21934C21.5446 4.84571 21.2715 4.42366 21.1246 4.02066C20.9899 4.44576 20.7133 4.89812 20.3142 5.29791C19.9096 5.70333 19.4487 5.98478 19.0155 6.12122C19.4273 6.26078 19.8606 6.52704 20.2457 6.90346C20.645 7.29377 20.9252 7.73687 21.0668 8.15594C21.1965 7.71912 21.4778 7.25052 21.8897 6.83792C22.2957 6.43122 22.7582 6.14926 23.1925 6.01332Z" fill="white"/>
</g>
<defs>
<clipPath id="clip0_38_2">
<rect width="32" height="38" fill="white" transform="translate(4 4)"/>
</clipPath>
</defs>
</svg>

<svg xmlns="http://www.w3.org/2000/svg" width="40" height="46" fill="none" viewBox="0 0 40 46"><rect width="40" height="46" fill="#0a7cff" rx="8"/><g fill="#fff" clip-path="url(#a)"><path d="M16.8 19.297v-8.401q0-1.057-.551-1.57-.54-.511-1.663-.512H9.213v-2.56h5.605q2.543 0 3.92 1.253 1.376 1.242 1.376 3.541v8.249zm-7.62 0v-4.468q0-1.33.286-1.94.287-.62.485-.86h2.642a8 8 0 0 0-.154 1.024q-.055.6-.055 1.427v4.817zm18.182 2.793v-2.56q1.434-.056 2.225-.872.802-.826.802-2.403v-4.918h-7.907V8.71H33.8v7.49q0 1.844-.78 3.14-.778 1.285-2.224 1.99-1.435.693-3.434.76"/><path d="M22.618 13.708v11.996h3.276V13.36q0-.85.056-1.464.068-.615.17-1.051h-2.723q-.192.246-.485.883-.294.637-.294 1.979m5.8 10.197h6.484v3.364h-3.83v6.327h-2.654zm.486 10.865-11.352-4.482V26.72l13.52 5.5v2.548z"/><path d="M12.982 21.199q2.655 0 4.01 1.274 1.367 1.275 1.367 3.8v8.306H14.97l-.022-8.585q0-1.095-.486-1.632-.474-.536-1.469-.536h-1.762q-.203.615-.305 1.375a11 11 0 0 0-.101 1.442v3.9q0 2.025-1.073 3.13Q8.69 34.77 6.77 34.77q-.464 0-.848-.045-.383-.033-.824-.1V32.02l.373.023h.372q.825 0 1.243-.425t.418-1.33v-3.343a7.7 7.7 0 0 1 .192-1.598q.192-.894.61-1.52H6.148V21.2zM10.846 38.72v-1.792h.865v1.123h1.94v.67zm3.11-.123-1.351 3.328h-.917l1.614-3.874h.654zM16.405 42q-.495 0-.868-.202a1.47 1.47 0 0 1-.578-.569 1.7 1.7 0 0 1-.204-.852V38.05h.861v2.414q0 .39.217.634.217.24.569.24.351 0 .565-.24.217-.244.217-.634v-1.188q0-.276-.121-.42-.122-.146-.362-.146a1 1 0 0 0-.19.023 2 2 0 0 0-.211.055l-.099-.553q.17-.104.385-.162.213-.062.404-.062.494 0 .776.319.283.318.283.878v1.168q0 .485-.207.852a1.45 1.45 0 0 1-.575.57 1.8 1.8 0 0 1-.862.201m2.864-1.756v-1.522h-.655v-.67h1.52v2.192zm1.637 1.718a2 2 0 0 1-.214-.013v-.777l.135.016q.07.006.128.006.283-.006.49-.104a.94.94 0 0 0 .348-.273 1.2 1.2 0 0 0 .207-.407v-1.688h-.864v-.67h1.716v1.978q0 .311.066.608l.266 1.288h-.802l-.23-1.021h-.023q-.046.29-.217.53a1.3 1.3 0 0 1-.431.384 1.2 1.2 0 0 1-.575.143m3.399-1.718v-1.522h-.654v-.67h1.518v2.192zm1.571-2.193h3.278v.67h-.674v3.205h-.868v-3.204h-1.736zM23.193 6.013a3.3 3.3 0 0 1-1.266-.794 3.3 3.3 0 0 1-.802-1.198c-.135.425-.412.877-.81 1.277-.405.405-.866.687-1.3.823.412.14.846.406 1.23.782.4.39.68.834.822 1.253.13-.437.41-.905.823-1.318.406-.407.868-.689 1.302-.825"/></g><defs><clipPath id="a"><path fill="#fff" d="M4 4h32v38H4z"/></clipPath></defs></svg>
